static/assets/images/exchanges/hotcoin.svg

<svg width="372" height="256" viewBox="0 0 372 256" fill="none" xmlns="http://www.w3.org/2000/svg">
<path fill-rule="evenodd" clip-rule="evenodd" d="M0.826172 142.13C0.826172 79.2498 50.8274 28.2608 112.5 28.2608V199.672H143.558V142.13H229.016C229.016 204.313 177.045 254.842 112.485 255.969C112.485 256.028 111.537 255.984 111.418 255.984C49.8203 256.785 0.826172 202.178 0.826172 142.13Z" fill="#427DF4"/>
<path fill-rule="evenodd" clip-rule="evenodd" d="M371.096 113.87C371.096 176.765 321.095 227.739 259.423 227.739V56.3278H228.364V113.87H142.906C142.906 51.687 194.877 1.15767 259.438 0.0308398C259.438 -0.0284669 260.385 0.0160122 260.504 0.0160122C322.102 -0.784629 371.096 53.8221 371.096 113.87Z" fill="#427DF4"/>
</svg>

<svg xmlns="http://www.w3.org/2000/svg" fill="none" viewBox="0 0 372 256"><path fill="#427DF4" fill-rule="evenodd" d="M.826 142.13C.826 79.25 50.827 28.26 112.5 28.26v171.412h31.058V142.13h85.458c0 62.183-51.971 112.712-116.531 113.839 0 .059-.948.015-1.067.015C49.82 256.785.826 202.178.826 142.13" clip-rule="evenodd"/><path fill="#427DF4" fill-rule="evenodd" d="M371.096 113.87c0 62.895-50.001 113.869-111.673 113.869V56.328h-31.059v57.542h-85.458c0-62.183 51.971-112.712 116.532-113.84 0-.058.947-.014 1.066-.014 61.598-.8 110.592 53.806 110.592 113.854" clip-rule="evenodd"/></svg>
